Fast Chocobo:d=4,o=5,b=180:16d6, 8p, 8b, 8g, 8e, 8d6, 8b, 8g, 8b, 8p, 8g, 8p, b, 8p, 8a, 8g, 16g, 16a, 8g, 8f, 8g, p, 8f, 8g, 16g, 16b, 16d6, 16p, 16e6, 16p, f6, p, 8d6, 8p, 8b, 8g, 8e, 8d6, 8b, 8g, 8b, 8p, 8g, 8p, b, 8p, 8a, 8g, 16g, 16a, 8g, 8f, 8g, p, 8f, 8g, 16g, 16b, 16d6, 16p, 16e6, 16p, f6
