FF7 RedXIII:d=4,o=6,b=63:32p, 8e6, 8e6, 8e6, 16e6, 16d6, 16e6, g6, 32p, 16g6, 16a6, 16g6, 8b6, 8b6, 16b6, 16a6, 16g6, 8a6, 8b.6, 16p, 8a.6, 16g6, 16a6, 8b.6, 16g6, 16e6, e6, 32p, 16g6, 16e6, 16d6, e.6
