FF7 Boss:d=4,o=2,b=120:16a, 16a, 16a, 8c.6, 16a, 16a, 16a, 8d.6, 16a, 16a, 16a, 16d#6, 16d6, 16c6, 16d6, 16c6, 16b, 8c6, 16b, 16a, 16a, 16a, 8c.6, 16a, 16a, 16a, 8d.6, 16a, 16a, 16a, 16d#6, 16d6, 16c6, 16d6, 16c6, 16b, 8c6, 16b
